assets/sonr-icons/device-smartphone.svg

<svg xmlns="http://www.w3.org/2000/svg" width="24" height="24" fill="none" viewBox="0 0 24 24"><path fill="#000" d="M9.75898 2H14.242C15.047 2 15.711 2 16.253 2.044C16.815 2.09 17.331 2.189 17.817 2.435C18.569 2.818 19.181 3.43 19.565 4.183C19.812 4.668 19.911 5.185 19.957 5.748C20.001 6.289 20.001 6.953 20.001 7.759V16.241C20.001 17.046 20.001 17.71 19.957 18.252C19.911 18.814 19.812 19.33 19.565 19.816C19.182 20.568 18.57 21.18 17.817 21.564C17.332 21.811 16.815 21.91 16.253 21.955C15.711 21.999 15.048 21.999 14.242 21.999H9.75898C8.95398 21.999 8.28998 21.999 7.74798 21.955C7.18598 21.909 6.66898 21.81 6.18398 21.564C5.43098 21.181 4.81998 20.569 4.43598 19.816C4.18898 19.331 4.08998 18.814 4.04498 18.252C4.00098 17.711 4.00098 17.047 4.00098 16.241V7.759C4.00098 6.954 4.00098 6.29 4.04498 5.748C4.09098 5.186 4.18998 4.67 4.43598 4.184C4.81898 3.431 5.43098 2.82 6.18398 2.436C6.66898 2.188 7.18598 2.09 7.74798 2.045C8.28898 2.001 8.95298 2 9.75898 2ZM7.91098 4.037C7.47198 4.073 7.24898 4.138 7.09198 4.218C6.71498 4.41 6.40898 4.716 6.21798 5.092C6.13798 5.249 6.07298 5.472 6.03698 5.911C5.99998 6.361 5.99898 6.944 5.99898 7.8V16.2C5.99898 17.056 5.99998 17.639 6.03698 18.089C6.07298 18.528 6.13798 18.751 6.21798 18.908C6.40998 19.285 6.71598 19.591 7.09198 19.782C7.24898 19.862 7.47198 19.927 7.91098 19.963C8.36098 20 8.94398 20 9.79998 20H14.2C15.056 20 15.639 19.999 16.089 19.963C16.528 19.927 16.751 19.862 16.908 19.782C17.285 19.59 17.591 19.284 17.782 18.908C17.862 18.751 17.927 18.528 17.963 18.089C18 17.639 18 17.056 18 16.2V7.8C18 6.944 17.999 6.362 17.963 5.911C17.927 5.472 17.862 5.249 17.782 5.092C17.59 4.715 17.284 4.409 16.908 4.218C16.751 4.139 16.528 4.073 16.089 4.037C15.639 4 15.056 4 14.2 4H9.79998C8.94398 4 8.36198 4.001 7.91098 4.037Z"/><path fill="#000" d="M13 17C13 17.552 12.552 18 12 18C11.448 18 11 17.552 11 17C11 16.448 11.448 16 12 16C12.552 16 13 16.448 13 17Z"/></svg>

<svg xmlns="http://www.w3.org/2000/svg" width="24" height="24" fill="none"><path fill="currentColor" d="M9.759 2h4.483c.805 0 1.469 0 2.011.044.562.046 1.078.145 1.564.391a4 4 0 0 1 1.748 1.748c.247.485.346 1.002.392 1.565.044.541.044 1.205.044 2.011v8.482c0 .805 0 1.469-.044 2.011-.046.562-.145 1.078-.392 1.564a4 4 0 0 1-1.748 1.748c-.485.247-1.002.346-1.564.391-.542.044-1.205.044-2.011.044H9.759c-.805 0-1.469 0-2.011-.044-.562-.046-1.079-.145-1.564-.391a4 4 0 0 1-1.748-1.748c-.247-.485-.346-1.002-.391-1.564-.044-.541-.044-1.205-.044-2.011V7.759c0-.805 0-1.469.044-2.011.046-.562.145-1.078.391-1.564a4 4 0 0 1 1.748-1.748c.485-.248 1.002-.346 1.564-.391C8.289 2.001 8.953 2 9.759 2M7.911 4.037c-.439.036-.662.101-.819.181a2 2 0 0 0-.874.874c-.08.157-.145.38-.181.819-.037.45-.038 1.033-.038 1.889v8.4c0 .856.001 1.439.038 1.889.036.439.101.662.181.819.192.377.498.683.874.874.157.08.38.145.819.181C8.361 20 8.944 20 9.8 20h4.4c.856 0 1.439-.001 1.889-.037.439-.036.662-.101.819-.181.377-.192.683-.498.874-.874.08-.157.145-.38.181-.819.037-.45.037-1.033.037-1.889V7.8c0-.856-.001-1.438-.037-1.889-.036-.439-.101-.662-.181-.819a2 2 0 0 0-.874-.874c-.157-.079-.38-.145-.819-.181C15.639 4 15.056 4 14.2 4H9.8c-.856 0-1.438.001-1.889.037"/><path fill="currentColor" d="M13 17a1 1 0 1 1-2 0 1 1 0 0 1 2 0"/></svg>
